packages/icons/src/traffic-light.svg

<svg width="24" height="24" viewBox="0 0 24 24" fill="none" xmlns="http://www.w3.org/2000/svg">
<path d="M11.9999 18C12.4332 18 12.7915 17.8583 13.0749 17.575C13.3582 17.2917 13.4999 16.9333 13.4999 16.5C13.4999 16.0667 13.3582 15.7083 13.0749 15.425C12.7915 15.1417 12.4332 15 11.9999 15C11.5665 15 11.2082 15.1417 10.9249 15.425C10.6415 15.7083 10.4999 16.0667 10.4999 16.5C10.4999 16.9333 10.6415 17.2917 10.9249 17.575C11.2082 17.8583 11.5665 18 11.9999 18ZM11.9999 13.5C12.4332 13.5 12.7915 13.3583 13.0749 13.075C13.3582 12.7917 13.4999 12.4333 13.4999 12C13.4999 11.5667 13.3582 11.2083 13.0749 10.925C12.7915 10.6417 12.4332 10.5 11.9999 10.5C11.5665 10.5 11.2082 10.6417 10.9249 10.925C10.6415 11.2083 10.4999 11.5667 10.4999 12C10.4999 12.4333 10.6415 12.7917 10.9249 13.075C11.2082 13.3583 11.5665 13.5 11.9999 13.5ZM11.9999 9C12.4332 9 12.7915 8.85833 13.0749 8.575C13.3582 8.29167 13.4999 7.93333 13.4999 7.5C13.4999 7.06667 13.3582 6.70833 13.0749 6.425C12.7915 6.14167 12.4332 6 11.9999 6C11.5665 6 11.2082 6.14167 10.9249 6.425C10.6415 6.70833 10.4999 7.06667 10.4999 7.5C10.4999 7.93333 10.6415 8.29167 10.9249 8.575C11.2082 8.85833 11.5665 9 11.9999 9ZM8.99985 21C8.44985 21 7.97902 20.8042 7.58735 20.4125C7.19568 20.0208 6.99985 19.55 6.99985 19V18.85C6.24985 18.65 5.60402 18.2583 5.06235 17.675C4.52068 17.0917 4.18318 16.4 4.04985 15.6C4.01652 15.4333 4.05402 15.2917 4.16235 15.175C4.27068 15.0583 4.41652 15 4.59985 15H6.99985V13.85C6.24985 13.65 5.60402 13.2583 5.06235 12.675C4.52068 12.0917 4.18318 11.4 4.04985 10.6C4.01652 10.4333 4.05402 10.2917 4.16235 10.175C4.27068 10.0583 4.41652 10 4.59985 10H6.99985V8.85C6.24985 8.65 5.60402 8.25833 5.06235 7.675C4.52068 7.09167 4.18318 6.4 4.04985 5.6C4.01652 5.43333 4.05402 5.29167 4.16235 5.175C4.27068 5.05833 4.41652 5 4.59985 5H6.99985C6.99985 4.45 7.19568 3.97917 7.58735 3.5875C7.97902 3.19583 8.44985 3 8.99985 3H14.9999C15.5499 3 16.0207 3.19583 16.4124 3.5875C16.804 3.97917 16.9999 4.45 16.9999 5H19.3999C19.5832 5 19.729 5.05833 19.8374 5.175C19.9457 5.29167 19.9832 5.43333 19.9499 5.6C19.8165 6.4 19.479 7.09167 18.9374 7.675C18.3957 8.25833 17.7499 8.65 16.9999 8.85V10H19.3999C19.5832 10 19.729 10.0583 19.8374 10.175C19.9457 10.2917 19.9832 10.4333 19.9499 10.6C19.8165 11.4 19.479 12.0917 18.9374 12.675C18.3957 13.2583 17.7499 13.65 16.9999 13.85V15H19.3999C19.5832 15 19.729 15.0583 19.8374 15.175C19.9457 15.2917 19.9832 15.4333 19.9499 15.6C19.8165 16.4 19.479 17.0917 18.9374 17.675C18.3957 18.2583 17.7499 18.65 16.9999 18.85V19C16.9999 19.55 16.804 20.0208 16.4124 20.4125C16.0207 20.8042 15.5499 21 14.9999 21H8.99985ZM8.99985 19H14.9999V5H8.99985V19Z" fill="black"/>
</svg>

<svg xmlns="http://www.w3.org/2000/svg" width="24" height="24" fill="none" viewBox="0 0 24 24">
  <path fill="#000" d="M12 18c.433 0 .791-.142 1.075-.425.283-.283.425-.642.425-1.075 0-.433-.142-.792-.425-1.075C12.79 15.142 12.433 15 12 15c-.434 0-.792.142-1.075.425-.284.283-.425.642-.425 1.075 0 .433.142.792.425 1.075.283.283.641.425 1.075.425Zm0-4.5c.433 0 .791-.142 1.075-.425.283-.283.425-.642.425-1.075 0-.433-.142-.792-.425-1.075-.284-.283-.642-.425-1.075-.425-.434 0-.792.142-1.075.425-.284.283-.425.642-.425 1.075 0 .433.142.792.425 1.075.283.283.641.425 1.075.425ZM12 9c.433 0 .791-.142 1.075-.425.283-.283.425-.642.425-1.075 0-.433-.142-.792-.425-1.075C12.79 6.142 12.433 6 12 6c-.434 0-.792.142-1.075.425-.284.283-.425.642-.425 1.075 0 .433.142.792.425 1.075.283.283.641.425 1.075.425ZM9 21a1.93 1.93 0 0 1-1.413-.587A1.926 1.926 0 0 1 7 19v-.15a4.01 4.01 0 0 1-1.938-1.175A3.933 3.933 0 0 1 4.05 15.6a.458.458 0 0 1 .112-.425A.568.568 0 0 1 4.6 15H7v-1.15a4.01 4.01 0 0 1-1.938-1.175A3.933 3.933 0 0 1 4.05 10.6a.458.458 0 0 1 .112-.425A.568.568 0 0 1 4.6 10H7V8.85a4.009 4.009 0 0 1-1.938-1.175A3.933 3.933 0 0 1 4.05 5.6a.458.458 0 0 1 .112-.425A.568.568 0 0 1 4.6 5H7c0-.55.196-1.02.587-1.413A1.926 1.926 0 0 1 9 3h6c.55 0 1.02.196 1.412.587C16.804 3.98 17 4.45 17 5h2.4c.183 0 .329.058.437.175a.458.458 0 0 1 .113.425 3.927 3.927 0 0 1-1.013 2.075A4.009 4.009 0 0 1 17 8.85V10h2.4c.183 0 .329.058.437.175a.458.458 0 0 1 .113.425 3.927 3.927 0 0 1-1.013 2.075A4.01 4.01 0 0 1 17 13.85V15h2.4c.183 0 .329.058.437.175a.458.458 0 0 1 .113.425 3.927 3.927 0 0 1-1.013 2.075A4.01 4.01 0 0 1 17 18.85V19c0 .55-.196 1.02-.588 1.413A1.926 1.926 0 0 1 15 21H9Zm0-2h6V5H9v14Z"/>
</svg>
